src/assets/icon/change-gold.svg

<svg width="100" height="100" viewBox="0 0 100 100" fill="none" xmlns="http://www.w3.org/2000/svg">
<g id="change-gold">
<circle id="Ellipse 41" cx="50" cy="50" r="50" fill="url(#paint0_linear_258_73855)"/>
<g id="autorenew">
<mask id="mask0_258_73855" style="mask-type:alpha" maskUnits="userSpaceOnUse" x="7" y="7" width="86" height="86">
<rect id="Bounding box" x="7.14282" y="7.14288" width="85.7143" height="85.7143" fill="#D9D9D9"/>
</mask>
<g mask="url(#mask0_258_73855)">
<path id="autorenew_2" d="M25.357 64.4643C24.0475 62.2024 23.0654 59.881 22.4106 57.5C21.7558 55.1191 21.4285 52.6786 21.4285 50.1786C21.4285 42.2024 24.1963 35.4167 29.732 29.8214C35.2678 24.2262 42.0237 21.4286 49.9999 21.4286H50.6249L44.9106 15.7143L49.9106 10.7143L64.1963 25L49.9106 39.2857L44.9106 34.2857L50.6249 28.5714H49.9999C44.0475 28.5714 38.988 30.6697 34.8213 34.8661C30.6547 39.0625 28.5713 44.1667 28.5713 50.1786C28.5713 51.7262 28.7499 53.2441 29.107 54.7322C29.4642 56.2202 29.9999 57.6786 30.7142 59.1072L25.357 64.4643ZM50.0892 89.2857L35.8035 75L50.0892 60.7143L55.0892 65.7143L49.3749 71.4286H49.9999C55.9523 71.4286 61.0118 69.3304 65.1785 65.1339C69.3451 60.9375 71.4285 55.8333 71.4285 49.8214C71.4285 48.2738 71.2499 46.756 70.8928 45.2679C70.5356 43.7798 69.9999 42.3214 69.2856 40.8929L74.6428 35.5357C75.9523 37.7976 76.9344 40.1191 77.5892 42.5C78.2439 44.881 78.5713 47.3214 78.5713 49.8214C78.5713 57.7976 75.8035 64.5833 70.2678 70.1786C64.732 75.7738 57.9761 78.5714 49.9999 78.5714H49.3749L55.0892 84.2857L50.0892 89.2857Z" fill="#F5F1EE"/>
</g>
</g>
</g>
<defs>
<linearGradient id="paint0_linear_258_73855" x1="-4.6748" y1="50.0004" x2="101.829" y2="50.0004" gradientUnits="userSpaceOnUse">
<stop stop-color="#AB750F"/>
<stop offset="0.516" stop-color="#D8A956"/>
<stop offset="1" stop-color="#AB750F"/>
</linearGradient>
</defs>
</svg>

<svg xmlns="http://www.w3.org/2000/svg" width="100" height="100" fill="none" xmlns:v="https://vecta.io/nano"><circle cx="50" cy="50" r="50" fill="url(#B)"/><mask id="A" maskUnits="userSpaceOnUse" x="7" y="7" width="86" height="86" mask-type="alpha"><path fill="#d9d9d9" d="M7.143 7.143h85.714v85.714H7.143z"/></mask><g mask="url(#A)"><path d="M25.357 64.464c-1.309-2.262-2.292-4.583-2.946-6.964s-.982-4.821-.982-7.321c0-7.976 2.768-14.762 8.304-20.357S42.024 21.429 50 21.429h.625l-5.714-5.714 5-5L64.196 25 49.911 39.286l-5-5 5.714-5.714H50c-5.952 0-11.012 2.098-15.179 6.295s-6.25 9.301-6.25 15.313c0 1.548.179 3.066.536 4.554s.893 2.946 1.607 4.375l-5.357 5.357zm24.732 24.821L35.804 75l14.286-14.286 5 5-5.714 5.714H50c5.952 0 11.012-2.098 15.179-6.295s6.25-9.301 6.25-15.312c0-1.548-.179-3.065-.536-4.553a20.42 20.42 0 0 0-1.607-4.375l5.357-5.357c1.31 2.262 2.292 4.583 2.946 6.964a27.49 27.49 0 0 1 .982 7.321c0 7.976-2.768 14.762-8.303 20.357S57.976 78.571 50 78.571h-.625l5.714 5.714-5 5z" fill="#f5f1ee"/></g><defs><linearGradient id="B" x1="-4.675" y1="50" x2="101.829" y2="50" gradientUnits="userSpaceOnUse"><stop stop-color="#ab750f"/><stop offset=".516" stop-color="#d8a956"/><stop offset="1" stop-color="#ab750f"/></linearGradient></defs></svg>
